packages/core/src/svgs/tpad.svg

<svg width="24" height="24" viewBox="0 0 24 24" fill="none" xmlns="http://www.w3.org/2000/svg">
<g clip-path="url(#clip0_31_19893)">
<path d="M0 0H24V24H0V0Z" fill="url(#paint0_linear_31_19893)"/>
<path d="M11.893 19.7142L11.9015 4.28564L7.5301 6.31707L5.57153 7.22564L7.29868 8.24136L10.7144 6.68136V19.0242C10.9072 19.1442 11.1044 19.2556 11.3015 19.3671L11.893 19.7142ZM13.2858 19.0285L12.103 19.7142V4.28564L18.4287 7.22564L16.723 8.2585L13.2858 6.64279V19.0285ZM5.57153 7.85136C5.84582 8.01422 6.13725 8.17707 6.42868 8.33993C6.7201 8.50279 7.01153 8.66564 7.28582 8.8285V14.9914L10.2858 16.7742V18.7028L5.57153 15.9556V7.85136ZM17.5715 8.33993C17.863 8.17707 18.1544 8.01422 18.4287 7.85136V15.9556C17.6444 16.4142 16.8558 16.8814 16.0715 17.3528L13.7144 18.7456V16.7742C14.2287 16.4742 14.7215 16.1785 15.2144 15.8828C15.7072 15.5828 16.2001 15.2871 16.7144 14.9914V8.8285C16.9887 8.66564 17.2801 8.50279 17.5715 8.33993Z" fill="url(#paint1_linear_31_19893)"/>
</g>
<defs>
<linearGradient id="paint0_linear_31_19893" x1="4.46571" y1="4.16143" x2="29.2071" y2="32.58" gradientUnits="userSpaceOnUse">
<stop stop-color="#1A1E21"/>
<stop offset="1" stop-color="#06060A"/>
</linearGradient>
<linearGradient id="paint1_linear_31_19893" x1="11.4987" y1="17.8371" x2="21.2744" y2="13.9071" gradientUnits="userSpaceOnUse">
<stop stop-color="#FC01C2"/>
<stop offset="1" stop-color="#6D138E"/>
</linearGradient>
<clipPath id="clip0_31_19893">
<rect width="24" height="24" fill="white"/>
</clipPath>
</defs>
</svg>

<svg xmlns="http://www.w3.org/2000/svg" width="24" height="24" fill="none" viewBox="0 0 24 24"><g clip-path="url(#a)"><path fill="url(#b)" d="M0 0h24v24H0z"/><path fill="url(#c)" d="m11.893 19.714.008-15.428-4.37 2.031-1.96.909L7.3 8.24l3.415-1.56v12.343q.29.178.588.343zm1.393-.685-1.183.685V4.286l6.326 2.94-1.706 1.032-3.437-1.615zM5.572 7.85c.274.163.565.326.857.489.291.163.583.326.857.489v6.162l3 1.783v1.929l-4.714-2.747zm12 .489c.291-.163.582-.326.857-.489v8.105q-1.18.688-2.357 1.397l-2.358 1.393v-1.972c.515-.3 1.008-.596 1.5-.891.493-.3.986-.596 1.5-.892V8.83c.275-.163.566-.326.858-.49"/></g><defs><linearGradient id="b" x1="4.466" x2="29.207" y1="4.161" y2="32.58" gradientUnits="userSpaceOnUse"><stop stop-color="#1A1E21"/><stop offset="1" stop-color="#06060A"/></linearGradient><linearGradient id="c" x1="11.499" x2="21.274" y1="17.837" y2="13.907" gradientUnits="userSpaceOnUse"><stop stop-color="#FC01C2"/><stop offset="1" stop-color="#6D138E"/></linearGradient><clipPath id="a"><path fill="#fff" d="M0 0h24v24H0z"/></clipPath></defs></svg>
